X: 195
T: Gu Changgong
%%abc-version 2.0
%%abcx-abcm2ps-target-version 5.9.1 (29 Sep 2008)
%%abc-creator hum2abc beta
%%abcx-conversion-date 2013/10/02 07:52:29
%%abc-edited-by Helmut Schaffrath
%%humdrum-veritas 1443039365
%%humdrum-veritas-data 146724552
%%continueall 1
%%barnumbers 0
L: 1/8
M: 2/4
K: G
A A A B [I:setbarnb 1]| 
d4 | 
e g e e | 
d2B e | 
d B A B | 
G G E G | 
A3z | 
d ed2 | 
B A d G | 
A3z | 
A Bd2 | 
Bd2A | 
E2G2 | 
A B A A | 
F3E | 
D4 | 
E G E G | 
A4 | 
B d A G | 
E E G A | 
D3G | 
E D A, B, | 
D4 |]  



